X: 1
T:Brigis Lachlainn
S:Alexander Mackay, A collection of Reels...
B:NLS Glen.344
N:Mc16 in Gore's Scottish Fiddle Music Index
N:Gore guesses 1802, a note (by Murdoch Henderson)
N:on the titlepage says there's an 1832 watermark.
Z:Jack Campin, <http://www.purr.demon.co.uk/jack/>
M:C|
L:1/8
K:D Minor
Dddc defc|ABcA GFEC|Dddc defa|gece d/d/d d2:|
defg afdf|ecgc acgc|defg afdf|ecge d/d/d d2:|
